src/static/logos/qt.svg

<svg width="256" height="309" xmlns="http://www.w3.org/2000/svg" preserveAspectRatio="xMidYMid"><path d="M63.255 1.229a37.623 37.623 0 00-9.206-.411h-.015s-20.38 1.381-21.305 1.454C14.125 3.755 0 19.055 0 40.184v249.113l20.835 19.426 209.382-35.195C244.621 271.032 256 254.043 256 235.689V32.827L63.255 1.229" fill="#0C481E"/><path d="M256 235.689c0 18.354-11.379 35.343-25.783 37.853L20.835 308.723V38.862c0-24.55 19.588-41.406 42.42-37.633L256 32.827v202.862" fill="#66B036"/><path d="M216.546 200.479c-.234.015-.484.015-.719.015-2.452 0-4.273-.764-5.447-2.335-1.322-1.718-1.968-5.521-1.968-11.438v-68.027l19.029.881v-18.618l-19.029-1.351V69.932l-16.915-1.821-7.004 29.821-11.144-.807v19.954l9.147.411v75.413c0 9.867 1.997 17.062 6.006 21.54 3.436 3.861 8.457 5.77 15.035 5.77.984 0 2.012-.044 3.054-.117 7.268-.617 14.669-2.599 22.216-5.903v-17.105c-4.434 2.026-8.516 3.171-12.261 3.391M118.434 58.083a64.568 64.568 0 00-7.4-.441c-14.918 0-26.782 5.829-35.269 17.664-10.073 14.052-15.197 36.194-15.197 66.191 0 27.81 3.744 49.086 11.086 63.637 7.238 14.301 17.707 22.832 31.113 25.695 2.922 14.155 7.474 23.728 13.655 28.676 4.67 3.759 10.866 5.624 18.53 5.624 2.32 0 4.773-.176 7.342-.499l8.751-1.16v-19.264c-1.336.146-2.613.22-3.803.22-4.096 0-7.15-.881-9.133-2.673-2.554-2.305-4.478-6.71-5.755-13.244 12.612-4.316 21.833-13.64 27.883-27.898 5.932-14.051 8.868-33.081 8.868-57.293 0-26.415-3.979-46.545-12.113-60.583-8.282-14.345-21.012-22.626-38.558-24.652zm15.403 137.022c-3.48 8.972-8.605 13.67-15.403 14.111-.308.014-.602.029-.91.029-6.799 0-11.967-4.86-15.418-14.654-3.67-10.278-5.491-27.81-5.491-52.492 0-25.548 1.865-42.434 5.565-50.568 3.421-7.474 8.325-11.204 14.698-11.204.514 0 1.027.03 1.556.074 6.886.602 12.011 5.388 15.447 14.242 3.421 8.796 5.109 24.844 5.109 48.176 0 25.989-1.703 43.418-5.153 52.286z" fill="#FFF"/><path d="M227.441 119.575l-19.029-.881v.412l10.19.469h8.839m-7.473 77.513c-2.673 1.218-5.184 2.143-7.592 2.716.97.47 2.1.69 3.451.69.235 0 .485 0 .719-.015 3.745-.22 7.827-1.365 12.261-3.391h-8.839M191.497 68.111h-8.824l-6.857 29.19 8.677.631 7.004-29.821m-2.995 146.332c-4.009-4.478-6.006-11.673-6.006-21.54V117.49l-9.147-.411V97.125h-8.825v4.463c1.278 4.802 2.276 10.014 3.025 15.623l6.123.279v75.413c0 9.867 1.997 17.062 6.005 21.54 3.436 3.861 8.458 5.77 15.036 5.77h8.824c-6.578 0-11.599-1.909-15.035-5.77m-41.26 29.983c1.19 0 2.452-.074 3.803-.22h-7.092c.984.146 2.129.22 3.289.22m-26.092 18.001c-.161-.073-.337-.146-.499-.235-.015 0-.029-.014-.044-.014-.161-.074-.308-.162-.455-.235l-.088-.044a9.671 9.671 0 00-.411-.22c-.044-.03-.074-.045-.118-.074a4.69 4.69 0 01-.367-.206.919.919 0 01-.161-.102l-.309-.177c-.073-.044-.147-.088-.205-.132a40.496 40.496 0 01-.265-.176c-.088-.044-.161-.103-.249-.161a2.016 2.016 0 01-.221-.147c-.088-.059-.19-.132-.278-.191l-.177-.132a5.317 5.317 0 01-.323-.25.323.323 0 01-.117-.073l-.441-.353c-6.181-4.948-10.733-14.521-13.655-28.676-13.406-2.863-23.875-11.394-31.113-25.695-7.342-14.551-11.086-35.827-11.086-63.637 0-29.997 5.124-52.139 15.197-66.191 8.487-11.835 20.351-17.664 35.269-17.664l-9.324-.015v.015c-14.903 0-26.753 5.829-35.24 17.664-10.072 14.052-15.197 36.194-15.197 66.191 0 27.81 3.745 49.086 11.086 63.637 7.254 14.301 17.708 22.832 31.128 25.695 2.908 14.155 7.474 23.728 13.641 28.676 4.669 3.759 10.865 5.624 18.53 5.624h8.575c-5.007-.088-9.368-.969-13.068-2.687-.015 0-.015 0-.015-.015" fill="#0C481E"/><path d="M118.434 80.401a18.714 18.714 0 00-1.556-.074c-1.601 0-3.113.235-4.523.72 5.286 1.63 9.353 6.181 12.231 13.596 3.436 8.796 5.125 24.844 5.125 48.176 0 25.989-1.704 43.418-5.169 52.286-2.775 7.166-6.637 11.615-11.541 13.332 1.424.529 2.937.808 4.523.808.308 0 .602-.015.91-.029 6.798-.441 11.923-5.139 15.403-14.111 3.45-8.868 5.153-26.297 5.153-52.286 0-23.332-1.688-39.38-5.109-48.176-3.436-8.854-8.561-13.64-15.447-14.242" fill="#0C481E"/></svg>

<?xml version="1.0" encoding="UTF-8" standalone="no"?>
<svg width="256px" height="309px" viewBox="0 0 256 309" version="1.1" xmlns="http://www.w3.org/2000/svg" xmlns:xlink="http://www.w3.org/1999/xlink" preserveAspectRatio="xMidYMid">
	<g>
		<path d="M63.255,1.229 C60.113,0.701 57.029,0.583 54.049,0.818 L54.034,0.818 C54.034,0.818 33.654,2.199 32.729,2.272 C14.125,3.755 0,19.055 0,40.184 L0,289.297 L20.835,308.723 L230.217,273.528 C244.621,271.032 256,254.043 256,235.689 L256,32.827 L63.255,1.229" fill="#0C481E"></path>
		<path d="M256,235.689 C256,254.043 244.621,271.032 230.217,273.542 L20.835,308.723 L20.835,38.862 C20.835,14.312 40.423,-2.544 63.255,1.229 L256,32.827 L256,235.689" fill="#66B036"></path>
		<path d="M216.546,200.479 C216.312,200.494 216.062,200.494 215.827,200.494 C213.375,200.494 211.554,199.73 210.38,198.159 C209.058,196.441 208.412,192.638 208.412,186.721 L208.412,118.694 L227.441,119.575 L227.441,100.957 L208.412,99.606 L208.412,69.932 L191.497,68.111 L184.493,97.932 L173.349,97.125 L173.349,117.079 L182.496,117.49 L182.496,192.903 C182.496,202.77 184.493,209.965 188.502,214.443 C191.938,218.304 196.959,220.213 203.537,220.213 C204.521,220.213 205.549,220.169 206.591,220.096 C213.859,219.479 221.26,217.497 228.807,214.193 L228.807,197.088 C224.373,199.114 220.291,200.259 216.546,200.479" fill="#FFFFFF"></path>
		<path d="M118.434,58.083 C115.894,57.789 113.412,57.642 111.034,57.642 C96.116,57.642 84.252,63.471 75.765,75.306 C65.692,89.358 60.568,111.5 60.568,141.497 C60.568,169.307 64.312,190.583 71.654,205.134 C78.892,219.435 89.361,227.966 102.767,230.829 C105.689,244.984 110.241,254.557 116.422,259.505 C121.092,263.264 127.288,265.129 134.952,265.129 C137.272,265.129 139.725,264.953 142.294,264.63 L151.045,263.47 L151.045,244.206 C149.709,244.352 148.432,244.426 147.242,244.426 C143.146,244.426 140.092,243.545 138.109,241.753 C135.555,239.448 133.631,235.043 132.354,228.509 C144.966,224.193 154.187,214.869 160.237,200.611 C166.169,186.56 169.105,167.53 169.105,143.318 C169.105,116.903 165.126,96.773 156.992,82.735 C148.71,68.39 135.98,60.109 118.434,58.083 L118.434,58.083 Z M133.837,195.105 C130.357,204.077 125.232,208.775 118.434,209.216 C118.126,209.23 117.832,209.245 117.524,209.245 C110.725,209.245 105.557,204.385 102.106,194.591 C98.436,184.313 96.615,166.781 96.615,142.099 C96.615,116.551 98.48,99.665 102.18,91.531 C105.601,84.057 110.505,80.327 116.878,80.327 C117.392,80.327 117.905,80.357 118.434,80.401 C125.32,81.003 130.445,85.789 133.881,94.643 C137.302,103.439 138.99,119.487 138.99,142.819 C138.99,168.808 137.287,186.237 133.837,195.105 L133.837,195.105 Z" fill="#FFFFFF"></path>
		<path d="M227.441,119.575 L208.412,118.694 L208.412,119.106 L218.602,119.575 L227.441,119.575" fill="#0C481E"></path>
		<path d="M219.968,197.088 C217.295,198.306 214.784,199.231 212.376,199.804 C213.346,200.274 214.476,200.494 215.827,200.494 C216.062,200.494 216.312,200.494 216.546,200.479 C220.291,200.259 224.373,199.114 228.807,197.088 L219.968,197.088" fill="#0C481E"></path>
		<path d="M191.497,68.111 L182.673,68.111 L175.816,97.301 L184.493,97.932 L191.497,68.111" fill="#0C481E"></path>
		<path d="M188.502,214.443 C184.493,209.965 182.496,202.77 182.496,192.903 L182.496,117.49 L173.349,117.079 L173.349,97.125 L164.524,97.125 L164.524,101.588 C165.802,106.39 166.8,111.602 167.549,117.211 L173.672,117.49 L173.672,192.903 C173.672,202.77 175.669,209.965 179.677,214.443 C183.113,218.304 188.135,220.213 194.713,220.213 L203.537,220.213 C196.959,220.213 191.938,218.304 188.502,214.443" fill="#0C481E"></path>
		<path d="M147.242,244.426 C148.432,244.426 149.694,244.352 151.045,244.206 L143.953,244.206 C144.937,244.352 146.082,244.426 147.242,244.426" fill="#0C481E"></path>
		<path d="M121.15,262.427 C120.989,262.354 120.813,262.281 120.651,262.192 C120.636,262.192 120.622,262.178 120.607,262.178 C120.446,262.104 120.299,262.016 120.152,261.943 C120.122,261.928 120.093,261.913 120.064,261.899 C119.932,261.825 119.799,261.752 119.653,261.679 C119.609,261.649 119.579,261.634 119.535,261.605 C119.418,261.546 119.286,261.473 119.168,261.399 C119.109,261.37 119.065,261.341 119.007,261.297 C118.904,261.238 118.801,261.179 118.698,261.12 C118.625,261.076 118.551,261.032 118.493,260.988 C118.405,260.93 118.316,260.871 118.228,260.812 C118.14,260.768 118.067,260.709 117.979,260.651 C117.905,260.607 117.832,260.562 117.758,260.504 C117.67,260.445 117.568,260.372 117.48,260.313 C117.421,260.269 117.362,260.225 117.303,260.181 C117.201,260.107 117.083,260.019 116.98,259.931 C116.936,259.916 116.892,259.887 116.863,259.858 C116.716,259.74 116.569,259.623 116.422,259.505 C110.241,254.557 105.689,244.984 102.767,230.829 C89.361,227.966 78.892,219.435 71.654,205.134 C64.312,190.583 60.568,169.307 60.568,141.497 C60.568,111.5 65.692,89.358 75.765,75.306 C84.252,63.471 96.116,57.642 111.034,57.642 C111.078,57.642 101.71,57.627 101.71,57.627 L101.71,57.642 C86.807,57.642 74.957,63.471 66.47,75.306 C56.398,89.358 51.273,111.5 51.273,141.497 C51.273,169.307 55.018,190.583 62.359,205.134 C69.613,219.435 80.067,227.966 93.487,230.829 C96.395,244.984 100.961,254.557 107.128,259.505 C111.797,263.264 117.993,265.129 125.658,265.129 L126.099,265.129 L134.233,265.129 C129.226,265.041 124.865,264.16 121.165,262.442 C121.15,262.442 121.15,262.442 121.15,262.427" fill="#0C481E"></path>
		<path d="M118.434,80.401 C117.905,80.357 117.392,80.327 116.878,80.327 C115.277,80.327 113.765,80.562 112.355,81.047 C117.641,82.677 121.708,87.228 124.586,94.643 C128.022,103.439 129.711,119.487 129.711,142.819 C129.711,168.808 128.007,186.237 124.542,195.105 C121.767,202.271 117.905,206.72 113.001,208.437 C114.425,208.966 115.938,209.245 117.524,209.245 C117.832,209.245 118.126,209.23 118.434,209.216 C125.232,208.775 130.357,204.077 133.837,195.105 C137.287,186.237 138.99,168.808 138.99,142.819 C138.99,119.487 137.302,103.439 133.881,94.643 C130.445,85.789 125.32,81.003 118.434,80.401" fill="#0C481E"></path>
	</g>
</svg>
